X: 4
T: Eagle's Whistle, The
M: 3/4
L: 1/8
Q: 110
R: Irish Air
K: G
D GA|: "G" B2 dBAG|  BA/B/  dB AG| "D" A 2 A>B/  AG| A2 D2-D2| "G"
B2 dB AG| BA/B/ dB AB/A/| G2 GB "D" AB/A/|1 "G" G2 GD GA:|2 "G" G2 GA Bd
|: "C" ef/e/ de gf| ef/e/ dB AG| "D" A2 A>B AG| A2 A2 Bd| "C" ef/e/ de g
f| ef/e/ dB AB/A/| "G" G2 GB "D"AB/A/|1"G"G2 GA Bd:|2 "G" G3||
